X:14316
T:Riverside Waltz
M:3/4
R:waltz
C:Don Pettigrew
L:1/8
Z:added by Alf warnock@magma.ca
K:G
B c^c|"Gmaj7"d4 B2|"G6"e4 B2|"Gmaj7"d6|DE FG AB|
d2 B2 G2|"G#dim"D3G EF|"Am6"F6|"D7"F6|
d4 c2|"Am7"e4 d2|"D7"f6|"Am7"e6|
"D7"D2 F2 A2|"D"d2 ^c2 c2|"G"B6|"G/D"B3B c^c|
"Gmaj7"d4 B2|"G6"e4 B2|"Gmaj7"d6|DE FG AB|
d2 B2 G2|"G7"F3G D^D|"C"E6|"Am"E6|
"C"e6|"A13b9"f4 "Bbdim"e2|"G"d6|DE FG AB|
"Am"d2 c3A|"D7"E2 F3D|"G"G6|"Fine"G6||
"Gmaj7"B,4 D2|"G6"G4 D2|"Gmaj7"B4 G2|d6|
d3B G2|"G#dim"D3G EF|"Am6"F6|"D7"F6|
d4 c2|"Am7"e4 d2|"D7"f6|"Am7"e6|
"D7"D3F A2|"D"d2 ^c2 c2|"G"B6|"UC134"B6|
"Gmaj7"B,4 D2|"G6"G4 D2|"Gmaj7"B4 G2|d6|
d3B GF|"G7"F3G D^D|"C"E6|"Am"E6|
"C"e6|"A13b9"f4 "Bbdim"e2|"G"d6|DE FG AB|
"Am"d2 c3A|"D7"E2 F2 D2|"G"G6|G3 "DC al Fine"B c^c|]
